!!!OTL: Emmanuel de
**kern
*staff1
=1-
*clefF3
*k[]
*met(c|)
*M2/2
0r
=2
0r
=3
0r
=4
1r
1A
=5
2F\
2E/
2D/
2G\
=6
2F\
2G\
2A\
2D/
=7
2A\
2B\
2A\
2F\
=8
1E
1D
!!linebreak:original
=9
*M3/1
1G
1G
1D
=10
0A
1A
=11
1G
1G
1D
=12
0A
1A
=13
0G
1r
=14
!!linebreak:original
0G
1G
=15
0C
1C
=16
0G
1A
=17
0E
1r
=18
0E
1A
=19
0G
1r
!!linebreak:original
=20
0C
1C
=21
0G
1r
=22
0E
1G
=23
1A
0E
=24
0AA
==
*-
!!title: @{OTL}, @{GTL}, ed. @{ENC}
!!!pag:
!!!GTL: Hymnbook D
!!!EFL: 
!!!YEM: Creative Commons CC/BY/NC/SA 4.0
!!!ENC: Marcin Konik
!!!END: 2015-0m-dd
!!!EED: Marcin Konik
!!!EEV: 
!!!ONB: Encoded in vim by Marcin Konik
!!!CharacterEncoding: utf-8
!!!RDF**kern: l=long note in original notation
!!!RDF**kern: i=editorial accidental
!!muse2ps: z14jc180F
!!!COM: Anonim
!!!CDT: [?]
!!!TXO: Polish
!!!ODT: 
!!!GTL: Hymnbook D
!!!ARL: Opactwo św. Wojciecha, Staniątki 
!!!voices:	1
